src/assets/filled/DollarSquare.svg

<?xml version="1.0" encoding="UTF-8"?>
<svg width="24" height="24" viewBox="0 0 24 24" xmlns="http://www.w3.org/2000/svg">
 <path d="m11.25 8.08v2.86l-1.01-0.35c-0.50998-0.18-0.81998-0.35-0.81998-1.22 0-0.71 0.53-1.29 1.18-1.29h0.65z"/>
 <path d="m14.58 14.63c0 0.71-0.53 1.29-1.18 1.29h-0.65v-2.86l1.01 0.35c0.51 0.18 0.82 0.35 0.82 1.22z"/>
 <path d="m16.19 2h-8.38c-3.64 0-5.81 2.17-5.81 5.81v8.38c0 3.64 2.17 5.81 5.81 5.81h8.38c3.64 0 5.81-2.17 5.81-5.81v-8.38c0-3.64-2.17-5.81-5.81-5.81zm-1.93 10c0.78 0.27 1.82 0.84 1.82 2.63 0 1.54-1.2 2.79-2.68 2.79h-0.65v0.58c0 0.41-0.34 0.75-0.75 0.75s-0.75-0.34-0.75-0.75v-0.58h-0.36c-1.64 0-2.97-1.39-2.97-3.09 0-0.41 0.33-0.75 0.75-0.75 0.41 0 0.75 0.34 0.75 0.75 0 0.88 0.66 1.59 1.47 1.59h0.36v-3.39l-1.51-0.53c-0.78-0.27-1.82-0.84-1.82-2.63 0-1.54 1.2-2.79 2.68-2.79h0.65v-0.58c0-0.41 0.34-0.75 0.75-0.75s0.75 0.34 0.75 0.75v0.58h0.36c1.64 0 2.97 1.39 2.97 3.09 0 0.41-0.33 0.75-0.75 0.75-0.41 0-0.75-0.34-0.75-0.75 0-0.88-0.66-1.59-1.47-1.59h-0.36v3.39l1.51 0.53z"/>
</svg>

<svg width="24" height="24" viewBox="0 0 24 24"  xmlns="http://www.w3.org/2000/svg">
<path d="M11.2499 8.08002V10.94L10.2399 10.59C9.72992 10.41 9.41992 10.24 9.41992 9.37002C9.41992 8.66002 9.94992 8.08002 10.5999 8.08002H11.2499Z" />
<path d="M14.58 14.63C14.58 15.34 14.05 15.92 13.4 15.92H12.75V13.06L13.76 13.41C14.27 13.59 14.58 13.76 14.58 14.63Z" />
<path d="M16.19 2H7.81C4.17 2 2 4.17 2 7.81V16.19C2 19.83 4.17 22 7.81 22H16.19C19.83 22 22 19.83 22 16.19V7.81C22 4.17 19.83 2 16.19 2ZM14.26 12C15.04 12.27 16.08 12.84 16.08 14.63C16.08 16.17 14.88 17.42 13.4 17.42H12.75V18C12.75 18.41 12.41 18.75 12 18.75C11.59 18.75 11.25 18.41 11.25 18V17.42H10.89C9.25 17.42 7.92 16.03 7.92 14.33C7.92 13.92 8.25 13.58 8.67 13.58C9.08 13.58 9.42 13.92 9.42 14.33C9.42 15.21 10.08 15.92 10.89 15.92H11.25V12.53L9.74 12C8.96 11.73 7.92 11.16 7.92 9.37C7.92 7.83 9.12 6.58 10.6 6.58H11.25V6C11.25 5.59 11.59 5.25 12 5.25C12.41 5.25 12.75 5.59 12.75 6V6.58H13.11C14.75 6.58 16.08 7.97 16.08 9.67C16.08 10.08 15.75 10.42 15.33 10.42C14.92 10.42 14.58 10.08 14.58 9.67C14.58 8.79 13.92 8.08 13.11 8.08H12.75V11.47L14.26 12Z" />
</svg>
